assets/awscloudwatchsynthetics/original.svg

<svg height="48" viewBox="0 0 48 48" width="48" xmlns="http://www.w3.org/2000/svg"><path d="m33 30h-3.481l-3.634 6.164-4.944-10.876-2.438 4.712h-3.503v-2h2.286l3.773-7.288 5.056 11.124 2.261-3.836h4.624zm-17.5 3h6.447v2h-6.447a5.506 5.506 0 0 1 -5.5-5.5v-1c0-3.033 2.468-5.5 5.5-5.5h1.5v2h-1.5c-1.93 0-3.5 1.57-3.5 3.5v1c0 1.93 1.57 3.5 3.5 3.5m22.5-4.5v1c0 3.033-2.468 5.5-5.5 5.5h-2.395v-2h2.395c1.93 0 3.5-1.57 3.5-3.5v-1c0-1.93-1.57-3.5-3.5-3.5h-7.447v-2h7.447c3.032 0 5.5 2.467 5.5 5.5m6 3.034a.466.466 0 0 1 -.466.466h-2.534v5.375c-3.886 3.684-10.201 5.873-17 5.873s-13.114-2.189-17-5.873v-5.375h-2.534a.466.466 0 0 1 -.466-.466v-5.068c0-.257.209-.466.466-.466h3.007l.192-.752c2.086-8.172 8.345-13.248 16.335-13.248 8.729 0 14.993 6.812 16.455 13.222l.177.778h2.902c.257 0 .466.209.466.466zm-21.5-26.034c0-.827.673-1.5 1.5-1.5s1.5.673 1.5 1.5-.673 1.5-1.5 1.5-1.5-.673-1.5-1.5m21.034 18.5h-1.326c-1.896-6.829-8.221-13.487-17.208-13.955v-1.208c1.44-.434 2.5-1.757 2.5-3.337 0-1.93-1.57-3.5-3.5-3.5s-3.5 1.57-3.5 3.5c0 1.58 1.06 2.903 2.5 3.337v1.202c-8.22.396-14.655 5.64-17.067 13.961h-1.467a2.47 2.47 0 0 0 -2.466 2.466v5.068a2.47 2.47 0 0 0 2.466 2.466h.534v4.21l.293.293c4.286 4.287 11.104 6.745 18.707 6.745s14.421-2.458 18.707-6.745l.293-.293v-4.21h.534a2.47 2.47 0 0 0 2.466-2.466v-5.068a2.47 2.47 0 0 0 -2.466-2.466" fill="#e7157b" fill-rule="evenodd"/></svg>

<svg xmlns="http://www.w3.org/2000/svg" width="48" height="48" viewBox="0 0 48 48"><title>Icon-Resource/Management-Governance/Res_Amazon-CloudWatch_Synthetics_48</title><g id="Icon-Resource/Management-Governance/Res_Amazon-CloudWatch_Synthetics_48" fill="none" fill-rule="evenodd" stroke="none" stroke-width="1"><path id="Fill-1" fill="#e7157b" d="M33 30h-3.481l-3.634 6.164-4.944-10.876L18.503 30H15v-2h2.286l3.773-7.288 5.056 11.124L28.376 28H33zm-17.5 3h6.447v2H15.5a5.506 5.506 0 0 1-5.5-5.5v-1c0-3.033 2.468-5.5 5.5-5.5H17v2h-1.5c-1.93 0-3.5 1.57-3.5 3.5v1c0 1.93 1.57 3.5 3.5 3.5M38 28.5v1c0 3.033-2.468 5.5-5.5 5.5h-2.395v-2H32.5c1.93 0 3.5-1.57 3.5-3.5v-1c0-1.93-1.57-3.5-3.5-3.5h-7.447v-2H32.5c3.032 0 5.5 2.467 5.5 5.5m6 3.034a.466.466 0 0 1-.466.466H41v5.375c-3.886 3.684-10.201 5.873-17 5.873s-13.114-2.189-17-5.873V32H4.466A.466.466 0 0 1 4 31.534v-5.068c0-.257.209-.466.466-.466h3.007l.192-.752C9.751 17.076 16.01 12 24 12c8.729 0 14.993 6.812 16.455 13.222l.177.778h2.902c.257 0 .466.209.466.466zM22.5 5.5c0-.827.673-1.5 1.5-1.5s1.5.673 1.5 1.5S24.827 7 24 7s-1.5-.673-1.5-1.5M43.534 24h-1.326C40.312 17.171 33.987 10.513 25 10.045V8.837c1.44-.434 2.5-1.757 2.5-3.337C27.5 3.57 25.93 2 24 2s-3.5 1.57-3.5 3.5c0 1.58 1.06 2.903 2.5 3.337v1.202C14.78 10.435 8.345 15.679 5.933 24H4.466A2.47 2.47 0 0 0 2 26.466v5.068A2.47 2.47 0 0 0 4.466 34H5v4.21l.293.293C9.579 42.79 16.397 45.248 24 45.248s14.421-2.458 18.707-6.745L43 38.21V34h.534A2.47 2.47 0 0 0 46 31.534v-5.068A2.47 2.47 0 0 0 43.534 24"/></g></svg>
